!!!COM: Palestrina, Giovanni Perluigi da
!!!OPR: Missa Sine nomine (1591)
!!!OMD: Benedictus
!!!OTL: First Section
**kern	**kern	**kern	**kern
*Itenor	*Icalto	*Icant	*Icant
!Tenor	!Altus	!Cantus 2	!Cantus 1
*clefGv2	*clefG2	*clefG2	*clefG2
*k[b-]	*k[b-]	*k[b-]	*k[b-]
*G:dor	*G:dor	*G:dor	*G:dor
*M4/2	*M4/2	*M4/2	*M4/2
=1	=1	=1	=1
0r	0d	0r	0r
=2	=2	=2	=2
0r	1d	0r	0r
.	1e-	.	.
=3	=3	=3	=3
0r	2d	0r	0a
.	2d	.	.
.	2d	.	.
.	4c	.	.
.	4B-	.	.
=4	=4	=4	=4
0r	4A	0r	1a
.	4G	.	.
.	2A	.	.
.	4G	.	1b-
.	4A	.	.
.	4B-	.	.
.	4c	.	.
=5	=5	=5	=5
1r	2d	0r	2a
.	2f	.	2a
[1A	2f	.	2a
.	4e	.	4g
.	4d	.	4f
=6	=6	=6	=6
1A]	2c	0r	2e
.	1d	.	2d
1A	.	.	1e
.	2c#	.	.
=7	=7	=7	=7
1B-	1d	0r	2d
.	.	.	2f
2A	[1c	.	2f
2A	.	.	4e
.	.	.	4d
=8	=8	=8	=8
2A	2c]	0r	2c
4G	4B-	.	1d
4F	4A	.	.
4E	2G	.	.
4D	.	.	.
2E	[2g	.	2c#
=9	=9	=9	=9
2D	2g]	0a	1d
2d	1f	.	.
2d	.	.	1r
4c	4e	.	.
4B-	4d	.	.
=10	=10	=10	=10
4A	2e	1a	1r
4G	.	.	.
2A	2f	.	.
1G	1g	1b-	1dd
=11	=11	=11	=11
2D	2f	2a	2dd
1F	2f	2a	4cc
.	.	.	4b-
.	2f	2a	2a
2G	4e	4g	2b-
.	4d	4f	.
=12	=12	=12	=12
0A	2c	2e	0a
.	1d	2d	.
.	.	1e	.
.	2c#	.	.
=13	=13	=13	=13
2r	1d	2d	2r
2G	.	2dd	2b-
2B-	1r	2dd	2b-
2c	.	4cc	4a
.	.	4b-	4g
=14	=14	=14	=14
0d	0r	2a	2f
.	.	2g	1g
.	.	1a	.
.	.	.	2f#
=15	=15	=15	=15
2r	1r	1b-	2.g
2G	.	.	.
.	.	.	4f
2A	2r	1cc	4e
.	.	.	4d
2c	2c	.	2e
=16	=16	=16	=16
4B-	2d	1f	1d
4c	.	.	.
4d	2f	.	.
4B-	.	.	.
1c	4e	1r	1r
.	4f	.	.
.	4g	.	.
.	4e	.	.
=17	=17	=17	=17
2.d	2f	1r	0r
.	4B-	.	.
4c	4c	.	.
2B-	4d	1f	.
.	4e	.	.
2A	[2f	.	.
=18	=18	=18	=18
1G	2f]	2g	1r
.	2e	2b-	.
1F	1f	4a	2r
.	.	4b-	.
.	.	4cc	2f
.	.	4a	.
=19	=19	=19	=19
1r	0r	4b-	2g
.	.	4cc	.
.	.	2dd	2b-
2r	.	2cc	4a
.	.	.	4b-
2F	.	2a	4cc
.	.	.	4a
=20	=20	=20	=20
2G	0r	2g	4b-
.	.	.	4cc
2B-	.	2f	2dd
4A	.	2f	1cc
4B-	.	.	.
4c	.	2e	.
4A	.	.	.
=21	=21	=21	=21
4B-	0r	2d	1f
4c	.	.	.
2d	.	1f	.
2c	.	.	1g
2c	.	2e	.
=22	=22	=22	=22
2F	2r	0f	1a
2A	2c	.	.
1B-	2d	.	2r
.	2f	.	2f
=23	=23	=23	=23
1G	2e	1.r	2g
.	4d	.	2b-
.	4e	.	.
1F	4f	.	1a
.	4g	.	.
.	[2f	2c	.
=24	=24	=24	=24
2.B-	4f]	2d	2r
.	4e	.	.
.	4d	2f	2f
4A	4c	.	.
2G	2B-	2e	2g
2G	2B-	4d	2b-
.	.	4e	.
=25	=25	=25	=25
1F	1c	4f	4a
.	.	4g	4b-
.	.	4a	4cc
.	.	4f	4a
1r	2r	4g	4b-
.	.	4a	4cc
.	2B-	2b-	2dd
=26	=26	=26	=26
0r	2c	4a	4cc
.	.	4g	4b-
.	2e-	1g	4a
.	.	.	4g
.	1d	.	2a
.	.	2f#	2a
=27	=27	=27	=27
1r	4G	2g	2b-
.	4A	.	.
.	4B-	2dd	2b-
.	4c	.	.
2r	4d	2dd	2a
.	4e	.	.
2B-	4f	2dd	2b-
.	4d	.	.
=28	=28	=28	=28
2c	4e	4cc	1g
.	4f	4b-	.
2e-	1g	4a	.
.	.	4g	.
2.d	.	1a	2r
.	2f#	.	[2dd
4c	.	.	.
=29	=29	=29	=29
4B-	2g	[0g	4dd]
4A	.	.	4cc
4G	2B-	.	4b-
4F	.	.	4a
4E-	2c	.	4g
4D	.	.	8a
.	.	.	8b
2C	2e-	.	[2cc
=30	=30	=30	=30
1G	1d	1g]	2cc]
.	.	.	2b
1C	2.e-	1g	2.cc
.	4e-	.	4cc
=31	=31	=31	=31
[0G	[0d	[0g	[0b
=32	=32	=32	=32
0G]	0d]	0g]	0b]
*-	*-	*-	*-
!!!CDT: 1525/^1526/-1594/2/2
!!!OCY: Italia
!!!AGN: Mass (Parody)
!!!AST: renaissance, vocal
!!!ASW: Motet (unidentified)
!!!PWK: Masses, Book 1
!!!RNB: Cadence finals: D
!!!YOR: Le Opere Complete, v. 1, p. 182
!!!YOO: Rome, Italy: Fratelli Scalera
!!!END: 1992//
!!!EED: John Miller
!!!YEC: Copyright 2000, John Miller
!!!YEN: United States of America
!!!YEM: Rights to all derivative electronic formats reserved.
!!!YEM: Refer to licensing agreement for further details.
!!!YEM: This file must be accompanied by the licensing agreement.
!!!YEM: A copy of the licensing agreement may be found at http://www.music-cog.ohio-state.edu/HumdrumDatabases/Palestrina/license.txt
!!!EMD: converted to Humdrum by Bret Aarden
